X: 92
T:Rambling Rake (#288), The
M:4/4
L:1/8
S:Rice-Walsh manuscript
R:Reel
K:G
D2|E2 EF GFGA|BcBA GBdB|AGFE DFAF|EFEB (3cdc) AF|
E2 EF GFGA|BcBA GBdB|AGFE DFAF|E2 EE E2||
d2|efed B2 g2|efed B2 ef|agfe defg|agfe defg|
bagf efga|bagf efga|bggb affa|gefd edBd||
efed B2 g2|efed B2 BA|GBdB AGFE|DFAF dBAF|
E2 EF GFGA|BcBA GBdB|AGFE DFAF|E2 EE E2||

